X:5
T:Albemarle Hornpipe
M:2/4
L:1/16
Z:abc by Bruce Osborne - bosborne@kos.net
K:A
E2|AGAB A2Bc|dBGB A2Bc|dcde dcBA|BABG E2FG|!
AGAB A2Bc|dBGB A2cd|eaga fdBG|A2c2 A2:|!
|:cd|ecea fdfa|gbeg a2gf|e^dfe =dcBA|GABG E2FG|!
AECE cAEA|dBGB ecAc|dfed cBAG|A2a2 A2:|!
